X: 11092
T: O Mother what shall I do
%R: waltz, minuet
B: James Oswald "The Caledonian Pocket Companion" v.1 b.1 p.9 #2
Z: 2020 John Chambers <jc:trillian.mit.edu>
M: 3/4
L: 1/8
K: D
%%slurgraces 1
%%graceslurs 1
|: "_Largo"\
Te4d2 | F3ED2 | F2A2B2 | dcdefe |\
d3cA2 | B3dBd | A2F2A2 | Bcd2FG |\
E4D2 :: fga2ab | a2f2a2 | b2a2ga | Tf3ed2 |
fab2b2 | b4a2 | dcdefg | e4d2 |\
fedefg | a2f2a2 | b2a2g2 | agfed2 |\
B3dBd | A3BAB | G3AFG | E4D2 :| 
